logos/planless-icon.svg

<?xml version="1.0" encoding="UTF-8"?>
<svg width="256px" height="298px" viewBox="0 0 256 298" version="1.1" xmlns="http://www.w3.org/2000/svg" preserveAspectRatio="xMidYMid">
    <title>Planless</title>
    <g>
        <path d="M126.670494,171.378639 L219.096304,209.981572 L11.6363775,295.990839 C3.68605747,299.229885 0.298529803,296.892557 0.0189911408,288.68197 L0,287.525912 L0,227.928375 C0,224.542238 1.92336818,221.435833 4.77094651,219.881238 L5.65194716,219.462686 L126.670494,171.378639 Z M256,109.071777 L256,187.970018 L162.576299,151.39946 C161.246793,151.060985 160.58204,149.706322 160.58204,148.690135 C160.58204,147.843947 161.043674,146.762178 161.966942,146.229216 L256,109.071777 Z M0,9.86929927 C0,1.12401724 3.04186158,-1.73474232 10.5803881,0.996661288 L11.6363775,1.40374735 L219.096304,87.7524196 L126.670494,126.016115 L5.65194716,78.2705428 C2.62951838,77.0390313 0.431383943,74.1288157 0.0567018874,70.5569299 L0,69.4665311 L0,9.86929927 Z" fill="#FF6254"></path>
    </g>
</svg>

<svg preserveAspectRatio="xMidYMid" viewBox="0 0 256 298" xmlns="http://www.w3.org/2000/svg">
  <path fill="#FF6254" d="m126.67 171.379 92.426 38.603-207.46 86.009C3.686 299.23.3 296.893.02 288.682L0 287.526v-59.598c0-3.386 1.923-6.492 4.77-8.047l.882-.418 121.018-48.084ZM256 109.072v78.898l-93.424-36.57c-1.33-.339-1.994-1.694-1.994-2.71 0-.846.462-1.928 1.385-2.46L256 109.071ZM0 9.869C0 1.124 3.042-1.735 10.58.997l1.056.407 207.46 86.348-92.426 38.264L5.652 78.271C2.63 77.039.432 74.129.057 70.557L0 69.467V9.869Z"/>
</svg>
